Catalina-dark/actions/22/edit-select-all-layers.svg

<svg xmlns="http://www.w3.org/2000/svg" viewBox="0 0 22 22">
  <defs id="defs3051">
    <style type="text/css" id="current-color-scheme">
      .ColorScheme-Text {
        color:#f2f2f2
      }
      </style>
  </defs>
 <path 
     style="fill:currentColor;fill-opacity:1;stroke:none"      
	 class="ColorScheme-Text"
        d="M 3 3 L 3 7 L 4.3339844 7 L 4.3339844 4.3339844 L 7 4.3339844 L 7 3 L 4.3339844 3 L 3 3 z M 15 3 L 15 4.3339844 L 17.666016 4.3339844 L 17.666016 5.6660156 L 17.666016 7 L 19 7 L 19 4.3339844 L 19 3 L 15 3 z M 9.6660156 7 L 5.6660156 11 L 12.333984 11 L 16.333984 7 L 9.6660156 7 z M 9.6660156 12.333984 L 5.6660156 16.333984 L 12.333984 16.333984 L 16.333984 12.333984 L 9.6660156 12.333984 z M 3 15 L 3 16.333984 L 3 17.666016 L 3 19 L 7 19 L 7 17.666016 L 4.3339844 17.666016 L 4.3339844 16.333984 L 4.3339844 15 L 3 15 z M 17.666016 15 L 17.666016 16.333984 L 17.666016 17.666016 L 16.333984 17.666016 L 15 17.666016 L 15 19 L 16.333984 19 L 17.666016 19 L 19 19 L 19 16.333984 L 19 15 L 17.666016 15 z "
     />
</svg>

<svg width="22" height="22" viewBox="3 3 16 16" xmlns="http://www.w3.org/2000/svg">
<defs>
<style id="current-color-scheme" type="text/css">.ColorScheme-Text {
        color:#f2f2f2
      }</style>
</defs>
<path class="ColorScheme-Text" d="m3 3v4h1.334v-2.666h2.666v-1.334h-2.666-1.334zm12 0v1.334h2.666v1.332 1.334h1.334v-2.666-1.334h-4zm-5.334 4-4 4h6.668l4-4h-6.668zm0 5.334-4 4h6.668l4-4h-6.668zm-6.666 2.666v1.334 1.332 1.334h4v-1.334h-2.666v-1.332-1.334h-1.334zm14.666 0v1.334 1.332h-1.332-1.334v1.334h1.334 1.332 1.334v-2.666-1.334h-1.334z" fill="currentColor"/>
</svg>
